X: 1
T: Minnesota, The
M: 3/4
L: 1/8
R: mazurka
K: Gmaj
D2 |:
G2 B>G B>d | G2 B>G B>c | d2 e>d c>B | A3 B A>F |
D2 F>D F>A | D2 F>D F>A | d2 d>c B>A |1 B3 c B>A :|
2 G3 c B>A ||
|: G2 B>G B>d | g4 g2 | g2 f>g a>g | e4 e2 | 
F2 A>F A>d |1 f3 g f>e | d2 d>e d>c | B3 c B>A :|
[2 f2 f>g f>e | d2 d>c B>A | G4 ||
